src/img/contact-bottom.svg

<svg width="1440" height="180" viewBox="0 0 1440 180" fill="none" xmlns="http://www.w3.org/2000/svg">
<g clip-path="url(#clip0_393_4013)">
<circle r="48.8049" transform="matrix(-1 0 0 1 14.8045 89.195)" fill="#FFD771"/>
<circle r="9.87317" transform="matrix(-1 0 0 1 32.4187 10.7707)" stroke="#FFD771" stroke-width="1.79512"/>
<path fill-rule="evenodd" clip-rule="evenodd" d="M0 43L24 53.2134C48 63.4267 96 83.5013 144 103.928C192 124.355 240 144.429 288 141.964C336 139.499 384 114.141 432 108.859C480 103.928 528 119.072 576 114.141C624 108.859 672 83.5013 720 86.3188C768 88.7841 816 119.072 864 119.072C912 119.072 960 88.7841 1008 70.8226C1056 53.2134 1104 48.2828 1152 45.4653C1200 43 1248 43 1296 50.7481C1344 58.144 1392 73.6401 1416 81.036L1440 88.7841V180H1416C1392 180 1344 180 1296 180C1248 180 1200 180 1152 180C1104 180 1056 180 1008 180C960 180 912 180 864 180C816 180 768 180 720 180C672 180 624 180 576 180C528 180 480 180 432 180C384 180 336 180 288 180C240 180 192 180 144 180C96 180 48 180 24 180H0V43Z" fill="#B8E5E8"/>
<path d="M151.283 51.7046L111.321 74.7769V28.6323L151.283 51.7046Z" fill="#41D2CA"/>
<path d="M200.046 51.7047L143.489 84.3578V19.0515L200.046 51.7047Z" fill="#07878E"/>
<circle cx="213.73" cy="134.73" r="13.1023" stroke="#FFD771" stroke-width="1.25531"/>
<circle cx="119.532" cy="137.532" r="7.53188" fill="#FFD771"/>
<path d="M36.2197 133.016L20.3051 142.204L20.3051 123.827L36.2197 133.016Z" fill="#41D2CA"/>
<path d="M55.6416 133.015L33.1184 146.019V120.012L55.6416 133.015Z" fill="#07878E"/>
</g>
<defs>
<clipPath id="clip0_393_4013">
<rect width="1440" height="180" fill="white"/>
</clipPath>
</defs>
</svg>

<svg xmlns="http://www.w3.org/2000/svg" width="1440" height="180" fill="none"><g clip-path="url(#a)"><circle r="48.805" fill="#FFD771" transform="matrix(-1 0 0 1 14.805 89.195)"/><circle r="9.873" stroke="#FFD771" stroke-width="1.795" transform="matrix(-1 0 0 1 32.419 10.77)"/><path fill="#B8E5E8" fill-rule="evenodd" d="m0 43 24 10.213c24 10.214 72 30.288 120 50.715 48 20.427 96 40.501 144 38.036 48-2.465 96-27.823 144-33.105 48-4.931 96 10.213 144 5.282 48-5.282 96-30.64 144-27.822 48 2.465 96 32.753 144 32.753s96-30.288 144-48.25c48-17.609 96-22.54 144-25.357 48-2.465 96-2.465 144 5.283 48 7.396 96 22.892 120 30.288l24 7.748V180H0V43Z" clip-rule="evenodd"/><path fill="#41D2CA" d="m151.283 51.705-39.962 23.072V28.632l39.962 23.073Z"/><path fill="#07878E" d="m200.046 51.705-56.557 32.653V19.052l56.557 32.653Z"/><circle cx="213.73" cy="134.73" r="13.102" stroke="#FFD771" stroke-width="1.255"/><circle cx="119.532" cy="137.532" r="7.532" fill="#FFD771"/><path fill="#41D2CA" d="m36.22 133.016-15.915 9.188v-18.377l15.915 9.189Z"/><path fill="#07878E" d="m55.642 133.015-22.524 13.004v-26.007l22.524 13.003Z"/></g><defs><clipPath id="a"><path fill="#fff" d="M0 0h1440v180H0z"/></clipPath></defs></svg>
